!!!COM: Richard Strauss
!!!CNT: Deutscher
!!!TXO: Deutsche 
!!!OTL: Epheu
!!!OPS: Opus 22
!!!ONM: No. 3
!!!LYR: Felix Dahn
!!!ENC: Brian Bice
!!!YOR: Lieder, Complete Edition, vol. 1
!!!ODT: 1888/
!!NB: Vocal melody and text only encoded.
**kern	**silbe
*clefG2	*
*k[b-e-a-]	*
*M4/4	*
=2	=2
2r	.
4r	.
{8e-	{A-
8e-	-ber
=3	=3
2a-	E-
4a-	-pheu
8cc	nenn'
8dd	ich
=4	=4
4.ee-	je-
8cc	-ne
4b-	Ma2d-
4a-}	-chen}
=5	=5
4r	.
{8a-	{mit
8a-	den
4.ee-	sanf-
8cc-	-ten
=6	=6
4b-	Wor-
4a-}	-ten,}
4r	.
{8a-	{mit
8a-	dem
=7	=7
*M3/2	*
4.ff	Haar,
8ee-	dem
8dd	schlich-
8cc}	-ten,}
8r	.
{4b-	{hel-
8f	-len
8f	um
8g	den
=8	=8
*M4/4	*
4.a-	leis'
8a-	ge-
4g	-wo2lb-
4f	-ten
=9	=9
2b-}	Brau'n,}
4r	.
{8b-	{mit
8b-	den
=10	=10
4.b-	brau-
8b-	-nen
(8a#	see-
8bn)	-len-
8cc#	-vol-
8dd	-len
=11	=11
4.een	Re-
8cc#	-hen-
(4bn	-au-
4an)}	-gen,}
=12	=12
4r	.
{8an	{die
8an	in
[2een	Tra2-
=13	=13
8een]	|
8cc	-nen
8bn	steh'n
8cc	so
16an}	oft,}
16r	.
{8an	{in
8an	ih-
8an	-ren
=14	=14
*M3/2	*
4.ff	Tra2-
8ee-	-nen
4dd	gra-
4cc}	-de}
8r	.
{8cc	{sind
([4gg	un-
=15	=15
*M4/4	*
4gg]	|
[4ff	|
8ff])	|
4cc	-wi-
8dd	-der-
=16	=16
4cc	-steh-
4b-}	-lich;}
4r	.
{8b-	{oh-
8b-	-ne
=17	=17
4.b-	Kraft
8b-	und
8.ee-	Selbst-
16b-	-ge-
4b-}	-fu2hl,}
=18	=18
8r	.
{4f	{schmuck-
8e-	-los
4r	.
8e-	mit
8e-	ver-
=19	=19
*M3/2	*
4.cc-	-borg'-
8an	-ner
4an	Blu2-
4b-}	-te,}
4r	.
{8b-	{doch
8b-	mit
=20	=20
*M4/4	*
8dd-	un-
8cc-	-er
8ee-	scho2pf-
8cc-	-lich
4b-	tie-
4a-}	-fer,}
=21	=21
{4.gg-	{treu-
8gg-	-er
8ff	in-
8ee-	-ni-
8dd-	-ger
8cc-	Enpf-
=22	=22
2an	-in-
4b-}	-dung}
4r	.
=23	=23
{8b-	{ko2n-
8b-	-nen
8b-	sie
8b-	mit
4.dd-	eig-
8ff	-ner
=24	=24
*M3/4	*
2cc	Trieb-
4b-}	-kraft}
=25	=25
*M4/4	*
{4.b-	{nie
8b-	sich
8b-	he-
8ddn	-ben
8ddn	aus
8ff	den
=26	=26
*M3/4	*
4gg	Wur-
8g}	-zeln,}
8r	.
{8b-	{sind
8b-	ge-
=27	=27
*M4/4	*
4.dd-	-bo-
8dd-	-ren,
8r	.
4cc	sich
8b-	zu
=28	=28
2.ff	ran-
4a-	-ken
=29	=29
*M3/2	*
(2.aa-	lie-
4B-)}	-bend}
4r	.
{8c	{um
8d	ein
=30	=30
4.g	an-
8f	-der
(2f	Le-
4ee-)}	-ben:}
4r	.
=31	=31
*M4/4	*
4r	.
{8g	{an
8a-	der
4.b-	er-
8b-	-sten
=32	=32
4.b-	Lieb'-
8cc	-um-
4b-	-ran-
4a-}	-kung}
=33	=33
8r	.
{4a-	{ha2ngt
8a-	ihr
4b-	gan-
4cc	-zes
=34	=34
4.ff	Le-
8dd-	-bens
4cc	schick-
4bb-}	-sal,}
=35	=35
*M3/2	*
4r	.
{8bn	{denn
8bn	sie
4bn	za2h-
4bn}	-len}
4r	.
{8cc#	{zu
8dd	den
=36	=36
*M4/4	*
4.dd	selt-
8cc#	-nen
4ff#	Blu-
4f#}	-men,}
=37	=37
4r	.
{8g	{die
8g	nur
([2gg	ein-
=38	=38
4gg]	|
2dd)	|
4g	-mal
=39	=39
(4.f	blu-
8b-)	|
4b-}	-hen.}
4r	.
*-	*-
